remix/System/logout-circle-line.svg

<svg viewBox="0 0 24 24" fill="currentColor" xmlns="http://www.w3.org/2000/svg"><path d="M5 11H13V13H5V16L0 12L5 8V11ZM3.99927 18H6.70835C8.11862 19.2447 9.97111 20 12 20C16.4183 20 20 16.4183 20 12C20 7.58172 16.4183 4 12 4C9.97111 4 8.11862 4.75527 6.70835 6H3.99927C5.82368 3.57111 8.72836 2 12 2C17.5228 2 22 6.47715 22 12C22 17.5228 17.5228 22 12 22C8.72836 22 5.82368 20.4289 3.99927 18Z"/></svg>

<svg viewBox="0 0 24 24" xmlns="http://www.w3.org/2000/svg"><path fill="none" d="M0 0h24v24H0Z"/><path d="M5 11h8v2H5v3l-5-4 5-4v3Zm-1 7h2.708 0c3.31 2.92 8.36 2.6 11.29-.71 2.92-3.32 2.6-8.37-.71-11.3 -3.03-2.67-7.56-2.67-10.59 0H3.98l-.001 0c1.88-2.52 4.85-4.01 8-4 5.523 0 10 4.477 10 10 0 5.52-4.477 10-10 10v0c-3.15 0-6.12-1.49-8-4Z"/></svg>
